X:129
T:Highway to Kilkenny*, The  
B:CRE2.106 (gan ainm)
F:file ID: cre.2/129highw_k
L:1/8
M:9/8
R:slip jig
Q:160
K:G
de/f/|:g3 gfg dBG|A2B c2d ecA|g3 gfg dBG|
[1 AB/c/A BGE E2:|2 AB/c/A BGE e2||
|:d|e2f g2e fdB|e2f g2a bge|ga/b/g faf ege|AB/c/A BGE e2:|

%%%

